X: 32
T: No_28_Undetermined_Dance_Song_(b).krn
N: Derived from No_28_Undetermined_Dance_Song_(b).krn
%%abc-version 2.0
%%abcx-abcm2ps-target-version 5.9.1 (29 Sep 2008)
%%abc-creator hum2abc beta
%%abcx-conversion-date 2019/03/15 08:36:49
%%humdrum-veritas 1081062852
%%humdrum-veritas-data 2093162554
%%linebreak <none>
%%barnumbers 0
L: 1/16
M: 3/4
K: Eb clef=bass
[K:clef=bass][M:3/4]E2EF EDCB, B,3E, | 
E2EF EDCB, B,3C | 
B,2B,C B,A,G,F, F,F,2F, | 
F,2F,G, F,E,E,2 E,E,3 | 
E,2E,F, E,D,C,B,, B,,B,,3 | 
F,2F,G, F,E,E,2 E,E,E,2 | 
E,2E,F, E,D,C,B,, B,,B,,3 ||  
[M:2/4]B,,2 B,,/B,,3/- B,,B,,B,,2 | 
B,,2 B,,/B,,3/- B,,B,,B,,B,, | 
B,,6B,,2 | 
B,,8 |]  



